X: 27
T: DA GREENLAND MAN'S TUNE
S: Laureen Johnsson, Uyeasound
R: slow air, jig
B: Haand me doon da fiddle, 1979
Z: 2012 John Chambers <jc:trillian.mit.edu>
M: 6/8
L: 1/8
K: A
|:\
d2B c2A | BcB E3 | F2=G A2G | FD2 D3 |\
d2B c2A | BcB E3 | G2A B2G | A3 A3 :|
|:\
B2B B2c | d2d d2B | A2A A2F | D2E F2A |\
B2B B2c | d2d d2B | A2F F2D | E3 E3 :|
%%begintext align
Dis is anidder een brought back fae da Greenland whaling days.  Jamsie
Laurenson o' Fetlar tocht he wis a listening t\"un, and might o' hed
Yakki words.
%%endtext

%%sep 2 1 500
%%sep 1 1 500

